account-card-outline.svg

<svg fill="currentColor" viewBox="0 0 24 24"><path d="M7 4C4.8 4 3 5.8 3 8s1.8 4 4 4 4-1.8 4-4-1.8-4-4-4m0 6c-1.1 0-2-.9-2-2s.9-2 2-2 2 .9 2 2-.9 2-2 2m-7 8c0-2.2 3.1-4 7-4 1.5 0 2.9.3 4 .7V17c-.8-.5-2.2-1-4-1-3.2 0-5 1.4-5 2h9v2H0zM22 4h-7c-1.1 0-2 .9-2 2v12c0 1.1.9 2 2 2h7c1.1 0 2-.9 2-2V6c0-1.1-.9-2-2-2m0 14h-7V6h7z"/></svg>

<svg  viewBox="0 0 24 24" fill="currentColor"><path  d="M7 4C4.8 4 3 5.8 3 8S4.8 12 7 12 11 10.2 11 8 9.2 4 7 4M7 10C5.9 10 5 9.1 5 8S5.9 6 7 6 9 6.9 9 8 8.1 10 7 10M0 18C0 15.8 3.1 14 7 14C8.5 14 9.9 14.3 11 14.7V17C10.2 16.5 8.8 16 7 16C3.8 16 2 17.4 2 18H11V20H0V18M22 4H15C13.9 4 13 4.9 13 6V18C13 19.1 13.9 20 15 20H22C23.1 20 24 19.1 24 18V6C24 4.9 23.1 4 22 4M22 18H15V6H22V18Z"/></svg>
